packages/calcite-ui-icons/icons/envelope-24-f.svg

<?xml version="1.0" encoding="UTF-8"?><svg id="icons" xmlns="http://www.w3.org/2000/svg" viewBox="0 0 24 24"><path d="M21.5,4H2.5c-.82501,0-1.5.67499-1.5,1.5v13c0,.82843.67157,1.5,1.5,1.5h19c.82843,0,1.5-.67157,1.5-1.5V5.5c0-.82501-.67499-1.5-1.5-1.5ZM22,5.63098l-7.15363,5.50836,7.15363,7.15363v.20703c0,.27539-.22461.5-.5.5h-.20703l-7.24548-7.24548-2.04749,1.57654-2.04749-1.57654-7.24548,7.24548h-.20703c-.27539,0-.5-.22461-.5-.5v-.20703l7.15363-7.15363L2,5.63098v-.13098c0-.27148.22852-.5.5-.5h.31946l9.18054,7.06934,9.18054-7.06934h.31946c.27148,0,.5.22852.5.5v.13098Z"/><rect width="24" height="24" style="fill:none;"/></svg>

<svg xmlns="http://www.w3.org/2000/svg" viewBox="0 0 24 24"><path d="M21.5 4h-19C1.675 4 1 4.675 1 5.5v13A1.5 1.5 0 0 0 2.5 20h19a1.5 1.5 0 0 0 1.5-1.5v-13c0-.825-.675-1.5-1.5-1.5m.5 1.631-7.154 5.508L22 18.293v.207c0 .275-.225.5-.5.5h-.207l-7.246-7.245L12 13.33l-2.047-1.576L2.707 19H2.5a.5.5 0 0 1-.5-.5v-.207l7.154-7.154L2 5.631V5.5c0-.271.229-.5.5-.5h.32L12 12.07 21.18 5h.32c.271 0 .5.229.5.5z"/><path d="M0 0h24v24H0z" style="fill:none"/></svg>
